X: 19685
T: Jenny Dang The Weaver
R: reel
M: 4/4
K: Dmajor
|:dA (3AAA AFAB|dA (3AAA f2ef|dB (3BBB BABd|ABde faef:|
|:d2fd efge|defd e2dB|d2fd efge|aA (3AAA f2ef:|

